X:52
T:Retro-Glisseurs, Les
S:Andy H
R:Other
O:England
N:Jan 96
M:5/8
L:1/8
C:Andy Hornby
A:Lancaster
K:Bm
Bdf e2|gfe fd|Bed c2|1 deg f2 :|2 dBA B2 ||
fdB c2|e2d cB|: FGA B2|AGE F2:|
W:Copyright Andy Hornby
